svg/color/icp.svg

<svg width="64" height="65" viewBox="0 0 64 65" fill="none" xmlns="http://www.w3.org/2000/svg">
<g clip-path="url(#clip0_27964_2441)">
<rect y="0.303711" width="64" height="64" rx="32" fill="white"/>
<g clip-path="url(#clip1_27964_2441)">
<path d="M45.6332 18C42.5675 18 39.2104 19.6974 35.6695 23.0456C33.9986 24.6185 32.527 26.3315 31.454 27.6863C31.454 27.6863 33.1708 29.6952 35.0563 31.8598C36.0833 30.5517 37.5396 28.7764 39.2411 27.1724C42.3835 24.1824 44.4376 23.5751 45.6179 23.5751C50.0326 23.5751 53.6196 27.3437 53.6196 32C53.6196 36.6096 50.0326 40.3782 45.6179 40.4249C45.4033 40.4249 45.158 40.3938 44.8515 40.3315C46.1391 40.9388 47.534 41.3749 48.837 41.3749C56.9306 41.3749 58.5248 35.6908 58.6168 35.2859C58.8467 34.2425 58.9847 33.1524 58.9847 32.0311C58.9693 24.2914 52.9911 18 45.6332 18Z" fill="url(#paint0_linear_27964_2441)"/>
<path d="M17.3514 46C20.4172 46 23.7742 44.3026 27.3152 40.9544C28.9861 39.3815 30.4576 37.6685 31.5307 36.3137C31.5307 36.3137 29.8138 34.3048 27.9284 32.1402C26.9013 33.4483 25.4451 35.2236 23.7436 36.8276C20.6012 39.7864 18.5318 40.4249 17.3668 40.4249C12.9521 40.4249 9.36511 36.6563 9.36511 32C9.36511 27.3904 12.9521 23.6218 17.3668 23.5751C17.5814 23.5751 17.8266 23.6062 18.1332 23.6685C16.8456 23.0612 15.4507 22.6251 14.1477 22.6251C6.05407 22.6096 4.45987 28.2937 4.36789 28.7141C4.13796 29.7575 4 30.8476 4 31.9689C4 39.7086 9.97826 46 17.3514 46Z" fill="url(#paint1_linear_27964_2441)"/>
<path fill-rule="evenodd" clip-rule="evenodd" d="M23.5137 27.297C22.6246 26.4249 18.3018 22.8587 14.163 22.7341C6.77453 22.5473 4.61316 27.9978 4.41388 28.6986C5.83947 22.594 11.1126 18.0311 17.3668 18C22.4713 18 27.6371 23.0923 31.454 27.6863L31.4693 27.6707C31.4693 27.6707 33.1862 29.6796 35.0716 31.8443C35.0716 31.8443 37.2177 34.4138 39.4863 36.6719C40.3754 37.5439 44.6828 41.0634 48.8216 41.188C56.4094 41.406 58.5095 35.6441 58.6168 35.208C57.2219 41.3593 51.9334 45.9377 45.6486 45.9689C40.544 45.9689 35.3782 40.8765 31.546 36.2825C31.546 36.2981 31.5307 36.2981 31.5307 36.3137C31.5307 36.3137 29.8138 34.3048 27.9284 32.1402C27.9437 32.1402 25.7977 29.5551 23.5137 27.297Z" fill="#29ABE2"/>
</g>
</g>
<rect x="0.5" y="0.803711" width="63" height="63" rx="31.5" stroke="#070B14" stroke-opacity="0.15"/>
<defs>
<linearGradient id="paint0_linear_27964_2441" x1="17.9866" y1="20.6576" x2="38.3474" y2="54.3484" gradientUnits="userSpaceOnUse">
<stop offset="0.21" stop-color="#F15A24"/>
<stop offset="0.6841" stop-color="#FBB03B"/>
</linearGradient>
<linearGradient id="paint1_linear_27964_2441" x1="45.0077" y1="43.3462" x2="24.647" y2="9.6554" gradientUnits="userSpaceOnUse">
<stop offset="0.21" stop-color="#ED1E79"/>
<stop offset="0.8929" stop-color="#522785"/>
</linearGradient>
<clipPath id="clip0_27964_2441">
<rect y="0.303711" width="64" height="64" rx="32" fill="white"/>
</clipPath>
<clipPath id="clip1_27964_2441">
<rect width="55" height="28" fill="white" transform="translate(4 18)"/>
</clipPath>
</defs>
</svg>

<svg xmlns="http://www.w3.org/2000/svg" width="64" height="65" fill="none" viewBox="0 0 64 65"><g clip-path="url(#icp_svg-a)"><rect width="64" height="64" y=".304" fill="#fff" rx="32"/><g clip-path="url(#icp_svg-b)"><path fill="url(#icp_svg-c)" d="M45.633 18c-3.065 0-6.423 1.697-9.964 5.046-1.67 1.573-3.142 3.285-4.215 4.64 0 0 1.717 2.01 3.602 4.174 1.027-1.308 2.484-3.084 4.185-4.688 3.142-2.99 5.197-3.597 6.377-3.597 4.415 0 8.002 3.769 8.002 8.425 0 4.61-3.587 8.378-8.002 8.425a4 4 0 0 1-.767-.093c1.288.607 2.683 1.043 3.986 1.043 8.094 0 9.688-5.684 9.78-6.09a15 15 0 0 0 .368-3.254C58.969 24.291 52.99 18 45.633 18"/><path fill="url(#icp_svg-d)" d="M17.351 46c3.066 0 6.423-1.697 9.964-5.046 1.671-1.572 3.143-3.285 4.216-4.64 0 0-1.717-2.01-3.603-4.174-1.027 1.308-2.483 3.084-4.184 4.688-3.143 2.958-5.212 3.597-6.377 3.597-4.415 0-8.002-3.769-8.002-8.425 0-4.61 3.587-8.378 8.002-8.425.214 0 .46.031.766.094-1.287-.608-2.682-1.044-3.985-1.044-8.094-.015-9.688 5.669-9.78 6.09A15 15 0 0 0 4 31.968C4 39.709 9.978 46 17.351 46"/><path fill="#29ABE2" fill-rule="evenodd" d="M23.514 27.297c-.89-.872-5.212-4.438-9.351-4.563-7.388-.187-9.55 5.264-9.75 5.965C5.84 22.594 11.114 18.03 17.368 18c5.104 0 10.27 5.092 14.087 9.686l.015-.015s1.717 2.009 3.603 4.173c0 0 2.146 2.57 4.414 4.828.89.872 5.197 4.391 9.336 4.516 7.587.218 9.688-5.544 9.795-5.98-1.395 6.151-6.684 10.73-12.968 10.76-5.105 0-10.27-5.092-14.103-9.686 0 .016-.015.016-.015.032 0 0-1.717-2.01-3.603-4.174.016 0-2.13-2.585-4.414-4.843" clip-rule="evenodd"/></g></g><rect width="63" height="63" x=".5" y=".804" stroke="#070B14" stroke-opacity=".15" rx="31.5"/><defs><linearGradient id="icp_svg-c" x1="17.987" x2="38.347" y1="20.658" y2="54.348" gradientUnits="userSpaceOnUse"><stop offset=".21" stop-color="#F15A24"/><stop offset=".684" stop-color="#FBB03B"/></linearGradient><linearGradient id="icp_svg-d" x1="45.008" x2="24.647" y1="43.346" y2="9.655" gradientUnits="userSpaceOnUse"><stop offset=".21" stop-color="#ED1E79"/><stop offset=".893" stop-color="#522785"/></linearGradient><clipPath id="icp_svg-a"><rect width="64" height="64" y=".304" fill="#fff" rx="32"/></clipPath><clipPath id="icp_svg-b"><path fill="#fff" d="M4 18h55v28H4z"/></clipPath></defs></svg>
